src/24/panel/copy-paused.svg

<svg xmlns="http://www.w3.org/2000/svg" width="24" height="24" x="0" y="0" version="1.1" xml:space="preserve">
 <defs>
  <style id="current-color-scheme" type="text/css">
   .ColorScheme-Text { color:#dfdfdf; } .ColorScheme-Highlight { color:#4285f4; }
  </style>
 </defs>
 <path opacity=".3" style="fill:currentColor" class="ColorScheme-Text" d="m20.635 3.0254l-5.617 6.8184 1.982 1.1562 4-7.6484-0.365-0.3262zm-14.635 4.4746l-4 3.5 4.375-0.625 1.625 9.625 3.393-2.301 0.607 0.178v-2.856l-1.252 1.071-3.248-8.092-1.5-0.5zm7 2.529l-3 0.971 1 3 1-0.75v-0.25h0.334l2.666-2-2-0.971zm3 1.571l-1.637 1.4h3.637l-2-1.4z"/>
 <path fill-rule="evenodd" style="fill:currentColor" class="ColorScheme-Text" d="m13 14v6h3v-6h-3zm4 0v6h3v-6h-3z" clip-rule="evenodd"/>
</svg>

<svg xmlns="http://www.w3.org/2000/svg" width="24" height="24"><defs><style id="current-color-scheme" type="text/css">.ColorScheme-Text{color:#bebebe}</style></defs><path opacity=".3" class="ColorScheme-Text" d="M20.635 3.025l-5.617 6.819L17 11l4-7.648-.365-.327zM6 7.5L2 11l4.375-.625L8 20l3.393-2.301.607.178v-2.856l-1.252 1.071L7.5 8 6 7.5zm7 2.529L10 11l1 3 1-.75V13h.334L15 11l-2-.971zm3 1.571L14.363 13H18l-2-1.4z" fill="currentColor"/><path fill-rule="evenodd" class="ColorScheme-Text" d="M13 14v6h3v-6h-3zm4 0v6h3v-6h-3z" clip-rule="evenodd" fill="currentColor"/></svg>
